pavlakrotka/NCC_MethodsComp/extra_material/results/results_iii_i_diff_alpha_h1.csv
num_arms,n_arm,d1,d2,d3,d4,d5,d6,d7,d8,d9,d10,period_blocks,mu0,sigma,theta1,theta2,theta3,theta4,theta5,theta6,theta7,theta8,theta9,theta10,lambda0,lambda1,lambda2,lambda3,lambda4,lambda5,lambda6,lambda7,lambda8,lambda9,lambda10,trend,N_peak,alpha,prec_theta,prec_eta,tau_a,tau_b,tau_case,prec_a,prec_b,bucket_size,opt,prior_prec_tau,prior_prec_eta,n_samples,n_chains,n_iter,n_adapt,robustify,weight,trend_mean,trend_var,ncc,study_arm,model,reject_h0,bias,MSE,failed,nsim
10,250,0,300,600,900,1200,1500,1800,2100,2400,2700,2,0,1,0.25,0.25,0.25,0.25,0.25,0.25,0.25,0.25,0.25,0,0,-0.15,-0.15,-0.15,-0.15,-0.15,-0.15,-0.15,-0.15,-0.15,0,linear,NA,0.025,0.001,0.001,1.0991208017965741,1.0991208017965742e-4,reasonable,0.001,0.001,25,2,0.002,1,1000,4,4000,1000,TRUE,0.1,0,0.5,TRUE,10,fixmodel,0.028,0.007077108554135643,0.007318145136107532,0,1000
10,250,0,300,600,900,1200,1500,1800,2100,2400,2700,2,0,1,0.25,0.25,0.25,0.25,0.25,0.25,0.25,0.25,0.25,0,0,-0.15,-0.15,-0.15,-0.15,-0.15,-0.15,-0.15,-0.15,-0.15,0,linear,NA,0.025,0.001,0.001,1.0991208017965741,1.0991208017965742e-4,reasonable,0.001,0.001,25,2,0.002,1,1000,4,4000,1000,TRUE,0.1,0,0.5,TRUE,10,MAPpriorNew,0.019,-0.002437377534505638,0.006119039001131825,0,1000
10,250,0,300,600,900,1200,1500,1800,2100,2400,2700,2,0,1,0.25,0.25,0.25,0.25,0.25,0.25,0.25,0.25,0.25,0,0,-0.15,-0.15,-0.15,-0.15,-0.15,-0.15,-0.15,-0.15,-0.15,0,linear,NA,0.025,0.001,0.001,1.0991208017965741,1.0991208017965742e-4,reasonable,0.001,0.001,25,2,0.002,1,1000,4,4000,1000,TRUE,0.1,0,0.5,TRUE,10,poolmodel,0.028,-0.0023074302414492474,0.005336166731071566,0,1000
10,250,0,300,600,900,1200,1500,1800,2100,2400,2700,2,0,1,0.25,0.25,0.25,0.25,0.25,0.25,0.25,0.25,0.25,0,0,-0.15,-0.15,-0.15,-0.15,-0.15,-0.15,-0.15,-0.15,-0.15,0,linear,NA,0.025,0.001,0.001,1.0991208017965741,1.0991208017965742e-4,reasonable,0.001,0.001,25,2,0.002,1,1000,4,4000,1000,TRUE,0.1,0,0.5,TRUE,10,sepmodel,0.029,-0.002279023701339649,0.008409847852711943,0,1000
10,250,0,300,600,900,1200,1500,1800,2100,2400,2700,2,0,1,0.25,0.25,0.25,0.25,0.25,0.25,0.25,0.25,0.25,0,0,-0.15,-0.15,-0.15,-0.15,-0.15,-0.15,-0.15,-0.15,-0.15,0,linear,NA,0.025,0.001,0.001,1.0991208017965741,1.0991208017965742e-4,reasonable,0.001,0.001,25,2,0.002,1,1000,4,4000,1000,TRUE,0.1,0,0.5,TRUE,10,timemachine,0.025,0.005006693082449405,0.005951618717977143,0,1000
10,250,0,300,600,900,1200,1500,1800,2100,2400,2700,2,0,1,0.25,0.25,0.25,0.25,0.25,0.25,0.25,0.25,0.25,0,0,-0.11249999999999999,-0.11249999999999999,-0.11249999999999999,-0.11249999999999999,-0.11249999999999999,-0.11249999999999999,-0.11249999999999999,-0.11249999999999999,-0.11249999999999999,0,linear,NA,0.025,0.001,0.001,1.0991208017965741,1.0991208017965742e-4,reasonable,0.001,0.001,25,2,0.002,1,1000,4,4000,1000,TRUE,0.1,0,0.5,TRUE,10,fixmodel,0.03,0.0036348071493411773,0.007037011312367897,0,1000
10,250,0,300,600,900,1200,1500,1800,2100,2400,2700,2,0,1,0.25,0.25,0.25,0.25,0.25,0.25,0.25,0.25,0.25,0,0,-0.11249999999999999,-0.11249999999999999,-0.11249999999999999,-0.11249999999999999,-0.11249999999999999,-0.11249999999999999,-0.11249999999999999,-0.11249999999999999,-0.11249999999999999,0,linear,NA,0.025,0.001,0.001,1.0991208017965741,1.0991208017965742e-4,reasonable,0.001,0.001,25,2,0.002,1,1000,4,4000,1000,TRUE,0.1,0,0.5,TRUE,10,MAPpriorNew,0.02,-0.0018666973505343059,0.005649278037517481,0,1000
10,250,0,300,600,900,1200,1500,1800,2100,2400,2700,2,0,1,0.25,0.25,0.25,0.25,0.25,0.25,0.25,0.25,0.25,0,0,-0.11249999999999999,-0.11249999999999999,-0.11249999999999999,-0.11249999999999999,-0.11249999999999999,-0.11249999999999999,-0.11249999999999999,-0.11249999999999999,-0.11249999999999999,0,linear,NA,0.025,0.001,0.001,1.0991208017965741,1.0991208017965742e-4,reasonable,0.001,0.001,25,2,0.002,1,1000,4,4000,1000,TRUE,0.1,0,0.5,TRUE,10,poolmodel,0.024,-0.0021722852373076726,0.004845145226466477,0,1000
10,250,0,300,600,900,1200,1500,1800,2100,2400,2700,2,0,1,0.25,0.25,0.25,0.25,0.25,0.25,0.25,0.25,0.25,0,0,-0.11249999999999999,-0.11249999999999999,-0.11249999999999999,-0.11249999999999999,-0.11249999999999999,-0.11249999999999999,-0.11249999999999999,-0.11249999999999999,-0.11249999999999999,0,linear,NA,0.025,0.001,0.001,1.0991208017965741,1.0991208017965742e-4,reasonable,0.001,0.001,25,2,0.002,1,1000,4,4000,1000,TRUE,0.1,0,0.5,TRUE,10,sepmodel,0.023,-0.002078523483564524,0.00796697062363456,0,1000
10,250,0,300,600,900,1200,1500,1800,2100,2400,2700,2,0,1,0.25,0.25,0.25,0.25,0.25,0.25,0.25,0.25,0.25,0,0,-0.11249999999999999,-0.11249999999999999,-0.11249999999999999,-0.11249999999999999,-0.11249999999999999,-0.11249999999999999,-0.11249999999999999,-0.11249999999999999,-0.11249999999999999,0,linear,NA,0.025,0.001,0.001,1.0991208017965741,1.0991208017965742e-4,reasonable,0.001,0.001,25,2,0.002,1,1000,4,4000,1000,TRUE,0.1,0,0.5,TRUE,10,timemachine,0.021,0.0016037133151580467,0.005792768997655012,0,1000
10,250,0,300,600,900,1200,1500,1800,2100,2400,2700,2,0,1,0.25,0.25,0.25,0.25,0.25,0.25,0.25,0.25,0.25,0,0,-0.075,-0.075,-0.075,-0.075,-0.075,-0.075,-0.075,-0.075,-0.075,0,linear,NA,0.025,0.001,0.001,1.0991208017965741,1.0991208017965742e-4,reasonable,0.001,0.001,25,2,0.002,1,1000,4,4000,1000,TRUE,0.1,0,0.5,TRUE,10,fixmodel,0.037,0.003239443165304048,0.007295627757556371,0,1000
10,250,0,300,600,900,1200,1500,1800,2100,2400,2700,2,0,1,0.25,0.25,0.25,0.25,0.25,0.25,0.25,0.25,0.25,0,0,-0.075,-0.075,-0.075,-0.075,-0.075,-0.075,-0.075,-0.075,-0.075,0,linear,NA,0.025,0.001,0.001,1.0991208017965741,1.0991208017965742e-4,reasonable,0.001,0.001,25,2,0.002,1,1000,4,4000,1000,TRUE,0.1,0,0.5,TRUE,10,MAPpriorNew,0.029,-0.0014118301896120036,0.005904555259686653,0,1000
10,250,0,300,600,900,1200,1500,1800,2100,2400,2700,2,0,1,0.25,0.25,0.25,0.25,0.25,0.25,0.25,0.25,0.25,0,0,-0.075,-0.075,-0.075,-0.075,-0.075,-0.075,-0.075,-0.075,-0.075,0,linear,NA,0.025,0.001,0.001,1.0991208017965741,1.0991208017965742e-4,reasonable,0.001,0.001,25,2,0.002,1,1000,4,4000,1000,TRUE,0.1,0,0.5,TRUE,10,poolmodel,0.025,-8.19204338769306e-4,0.0051564431062117244,0,1000
10,250,0,300,600,900,1200,1500,1800,2100,2400,2700,2,0,1,0.25,0.25,0.25,0.25,0.25,0.25,0.25,0.25,0.25,0,0,-0.075,-0.075,-0.075,-0.075,-0.075,-0.075,-0.075,-0.075,-0.075,0,linear,NA,0.025,0.001,0.001,1.0991208017965741,1.0991208017965742e-4,reasonable,0.001,0.001,25,2,0.002,1,1000,4,4000,1000,TRUE,0.1,0,0.5,TRUE,10,sepmodel,0.037,-0.002562924466874919,0.008023439154321377,0,1000
10,250,0,300,600,900,1200,1500,1800,2100,2400,2700,2,0,1,0.25,0.25,0.25,0.25,0.25,0.25,0.25,0.25,0.25,0,0,-0.075,-0.075,-0.075,-0.075,-0.075,-0.075,-0.075,-0.075,-0.075,0,linear,NA,0.025,0.001,0.001,1.0991208017965741,1.0991208017965742e-4,reasonable,0.001,0.001,25,2,0.002,1,1000,4,4000,1000,TRUE,0.1,0,0.5,TRUE,10,timemachine,0.031,0.0027627256291482705,0.005948253073579927,0,1000
10,250,0,300,600,900,1200,1500,1800,2100,2400,2700,2,0,1,0.25,0.25,0.25,0.25,0.25,0.25,0.25,0.25,0.25,0,0,-0.037500000000000006,-0.037500000000000006,-0.037500000000000006,-0.037500000000000006,-0.037500000000000006,-0.037500000000000006,-0.037500000000000006,-0.037500000000000006,-0.037500000000000006,0,linear,NA,0.025,0.001,0.001,1.0991208017965741,1.0991208017965742e-4,reasonable,0.001,0.001,25,2,0.002,1,1000,4,4000,1000,TRUE,0.1,0,0.5,TRUE,10,fixmodel,0.02,-2.1677940283552948e-4,0.0072315647975335125,0,1000
10,250,0,300,600,900,1200,1500,1800,2100,2400,2700,2,0,1,0.25,0.25,0.25,0.25,0.25,0.25,0.25,0.25,0.25,0,0,-0.037500000000000006,-0.037500000000000006,-0.037500000000000006,-0.037500000000000006,-0.037500000000000006,-0.037500000000000006,-0.037500000000000006,-0.037500000000000006,-0.037500000000000006,0,linear,NA,0.025,0.001,0.001,1.0991208017965741,1.0991208017965742e-4,reasonable,0.001,0.001,25,2,0.002,1,1000,4,4000,1000,TRUE,0.1,0,0.5,TRUE,10,MAPpriorNew,0.016,-0.002626978572479603,0.005830880078261066,0,1000
10,250,0,300,600,900,1200,1500,1800,2100,2400,2700,2,0,1,0.25,0.25,0.25,0.25,0.25,0.25,0.25,0.25,0.25,0,0,-0.037500000000000006,-0.037500000000000006,-0.037500000000000006,-0.037500000000000006,-0.037500000000000006,-0.037500000000000006,-0.037500000000000006,-0.037500000000000006,-0.037500000000000006,0,linear,NA,0.025,0.001,0.001,1.0991208017965741,1.0991208017965742e-4,reasonable,0.001,0.001,25,2,0.002,1,1000,4,4000,1000,TRUE,0.1,0,0.5,TRUE,10,poolmodel,0.024,-0.001447506203581297,0.005120944119265442,0,1000
10,250,0,300,600,900,1200,1500,1800,2100,2400,2700,2,0,1,0.25,0.25,0.25,0.25,0.25,0.25,0.25,0.25,0.25,0,0,-0.037500000000000006,-0.037500000000000006,-0.037500000000000006,-0.037500000000000006,-0.037500000000000006,-0.037500000000000006,-0.037500000000000006,-0.037500000000000006,-0.037500000000000006,0,linear,NA,0.025,0.001,0.001,1.0991208017965741,1.0991208017965742e-4,reasonable,0.001,0.001,25,2,0.002,1,1000,4,4000,1000,TRUE,0.1,0,0.5,TRUE,10,sepmodel,0.017,-0.0035440971017184847,0.008164605545093531,0,1000
10,250,0,300,600,900,1200,1500,1800,2100,2400,2700,2,0,1,0.25,0.25,0.25,0.25,0.25,0.25,0.25,0.25,0.25,0,0,-0.037500000000000006,-0.037500000000000006,-0.037500000000000006,-0.037500000000000006,-0.037500000000000006,-0.037500000000000006,-0.037500000000000006,-0.037500000000000006,-0.037500000000000006,0,linear,NA,0.025,0.001,0.001,1.0991208017965741,1.0991208017965742e-4,reasonable,0.001,0.001,25,2,0.002,1,1000,4,4000,1000,TRUE,0.1,0,0.5,TRUE,10,timemachine,0.014,-7.302683323055088e-4,0.005978537905146577,0,1000
10,250,0,300,600,900,1200,1500,1800,2100,2400,2700,2,0,1,0.25,0.25,0.25,0.25,0.25,0.25,0.25,0.25,0.25,0,0,0,0,0,0,0,0,0,0,0,0,linear,NA,0.025,0.001,0.001,1.0991208017965741,1.0991208017965742e-4,reasonable,0.001,0.001,25,2,0.002,1,1000,4,4000,1000,TRUE,0.1,0,0.5,TRUE,10,fixmodel,0.024,0.002177097831189471,0.006717092241809391,0,1000
10,250,0,300,600,900,1200,1500,1800,2100,2400,2700,2,0,1,0.25,0.25,0.25,0.25,0.25,0.25,0.25,0.25,0.25,0,0,0,0,0,0,0,0,0,0,0,0,linear,NA,0.025,0.001,0.001,1.0991208017965741,1.0991208017965742e-4,reasonable,0.001,0.001,25,2,0.002,1,1000,4,4000,1000,TRUE,0.1,0,0.5,TRUE,10,MAPpriorNew,0.019,0.0016775142865236275,0.005409367767938853,0,1000
10,250,0,300,600,900,1200,1500,1800,2100,2400,2700,2,0,1,0.25,0.25,0.25,0.25,0.25,0.25,0.25,0.25,0.25,0,0,0,0,0,0,0,0,0,0,0,0,linear,NA,0.025,0.001,0.001,1.0991208017965741,1.0991208017965742e-4,reasonable,0.001,0.001,25,2,0.002,1,1000,4,4000,1000,TRUE,0.1,0,0.5,TRUE,10,poolmodel,0.022,0.001676929650331826,0.004771744339935654,0,1000
10,250,0,300,600,900,1200,1500,1800,2100,2400,2700,2,0,1,0.25,0.25,0.25,0.25,0.25,0.25,0.25,0.25,0.25,0,0,0,0,0,0,0,0,0,0,0,0,linear,NA,0.025,0.001,0.001,1.0991208017965741,1.0991208017965742e-4,reasonable,0.001,0.001,25,2,0.002,1,1000,4,4000,1000,TRUE,0.1,0,0.5,TRUE,10,sepmodel,0.025,0.0013197569348122433,0.007644906944629862,0,1000
10,250,0,300,600,900,1200,1500,1800,2100,2400,2700,2,0,1,0.25,0.25,0.25,0.25,0.25,0.25,0.25,0.25,0.25,0,0,0,0,0,0,0,0,0,0,0,0,linear,NA,0.025,0.001,0.001,1.0991208017965741,1.0991208017965742e-4,reasonable,0.001,0.001,25,2,0.002,1,1000,4,4000,1000,TRUE,0.1,0,0.5,TRUE,10,timemachine,0.023,0.0036951598331400924,0.005540762876207584,0,1000
10,250,0,300,600,900,1200,1500,1800,2100,2400,2700,2,0,1,0.25,0.25,0.25,0.25,0.25,0.25,0.25,0.25,0.25,0,0,0.037500000000000006,0.037500000000000006,0.037500000000000006,0.037500000000000006,0.037500000000000006,0.037500000000000006,0.037500000000000006,0.037500000000000006,0.037500000000000006,0,linear,NA,0.025,0.001,0.001,1.0991208017965741,1.0991208017965742e-4,reasonable,0.001,0.001,25,2,0.002,1,1000,4,4000,1000,TRUE,0.1,0,0.5,TRUE,10,fixmodel,0.023,-0.00110348426186572,0.00692749210438114,0,1000
10,250,0,300,600,900,1200,1500,1800,2100,2400,2700,2,0,1,0.25,0.25,0.25,0.25,0.25,0.25,0.25,0.25,0.25,0,0,0.037500000000000006,0.037500000000000006,0.037500000000000006,0.037500000000000006,0.037500000000000006,0.037500000000000006,0.037500000000000006,0.037500000000000006,0.037500000000000006,0,linear,NA,0.025,0.001,0.001,1.0991208017965741,1.0991208017965742e-4,reasonable,0.001,0.001,25,2,0.002,1,1000,4,4000,1000,TRUE,0.1,0,0.5,TRUE,10,MAPpriorNew,0.013,8.712259757315347e-4,0.005355177157909507,0,1000
10,250,0,300,600,900,1200,1500,1800,2100,2400,2700,2,0,1,0.25,0.25,0.25,0.25,0.25,0.25,0.25,0.25,0.25,0,0,0.037500000000000006,0.037500000000000006,0.037500000000000006,0.037500000000000006,0.037500000000000006,0.037500000000000006,0.037500000000000006,0.037500000000000006,0.037500000000000006,0,linear,NA,0.025,0.001,0.001,1.0991208017965741,1.0991208017965742e-4,reasonable,0.001,0.001,25,2,0.002,1,1000,4,4000,1000,TRUE,0.1,0,0.5,TRUE,10,poolmodel,0.023,-6.570163911632929e-4,0.004695972876104331,0,1000
10,250,0,300,600,900,1200,1500,1800,2100,2400,2700,2,0,1,0.25,0.25,0.25,0.25,0.25,0.25,0.25,0.25,0.25,0,0,0.037500000000000006,0.037500000000000006,0.037500000000000006,0.037500000000000006,0.037500000000000006,0.037500000000000006,0.037500000000000006,0.037500000000000006,0.037500000000000006,0,linear,NA,0.025,0.001,0.001,1.0991208017965741,1.0991208017965742e-4,reasonable,0.001,0.001,25,2,0.002,1,1000,4,4000,1000,TRUE,0.1,0,0.5,TRUE,10,sepmodel,0.022,0.002694472837259301,0.007523681396465422,0,1000
10,250,0,300,600,900,1200,1500,1800,2100,2400,2700,2,0,1,0.25,0.25,0.25,0.25,0.25,0.25,0.25,0.25,0.25,0,0,0.037500000000000006,0.037500000000000006,0.037500000000000006,0.037500000000000006,0.037500000000000006,0.037500000000000006,0.037500000000000006,0.037500000000000006,0.037500000000000006,0,linear,NA,0.025,0.001,0.001,1.0991208017965741,1.0991208017965742e-4,reasonable,0.001,0.001,25,2,0.002,1,1000,4,4000,1000,TRUE,0.1,0,0.5,TRUE,10,timemachine,0.025,-9.784518857438144e-4,0.005497511880930236,0,1000
10,250,0,300,600,900,1200,1500,1800,2100,2400,2700,2,0,1,0.25,0.25,0.25,0.25,0.25,0.25,0.25,0.25,0.25,0,0,0.07499999999999998,0.07499999999999998,0.07499999999999998,0.07499999999999998,0.07499999999999998,0.07499999999999998,0.07499999999999998,0.07499999999999998,0.07499999999999998,0,linear,NA,0.025,0.001,0.001,1.0991208017965741,1.0991208017965742e-4,reasonable,0.001,0.001,25,2,0.002,1,1000,4,4000,1000,TRUE,0.1,0,0.5,TRUE,10,fixmodel,0.017,-0.0048393976027571,0.007457928453402473,0,1000
10,250,0,300,600,900,1200,1500,1800,2100,2400,2700,2,0,1,0.25,0.25,0.25,0.25,0.25,0.25,0.25,0.25,0.25,0,0,0.07499999999999998,0.07499999999999998,0.07499999999999998,0.07499999999999998,0.07499999999999998,0.07499999999999998,0.07499999999999998,0.07499999999999998,0.07499999999999998,0,linear,NA,0.025,0.001,0.001,1.0991208017965741,1.0991208017965742e-4,reasonable,0.001,0.001,25,2,0.002,1,1000,4,4000,1000,TRUE,0.1,0,0.5,TRUE,10,MAPpriorNew,0.017,-0.001961825677931851,0.005953992899615397,0,1000
10,250,0,300,600,900,1200,1500,1800,2100,2400,2700,2,0,1,0.25,0.25,0.25,0.25,0.25,0.25,0.25,0.25,0.25,0,0,0.07499999999999998,0.07499999999999998,0.07499999999999998,0.07499999999999998,0.07499999999999998,0.07499999999999998,0.07499999999999998,0.07499999999999998,0.07499999999999998,0,linear,NA,0.025,0.001,0.001,1.0991208017965741,1.0991208017965742e-4,reasonable,0.001,0.001,25,2,0.002,1,1000,4,4000,1000,TRUE,0.1,0,0.5,TRUE,10,poolmodel,0.024,-0.0027938008438585394,0.005220958533067709,0,1000
10,250,0,300,600,900,1200,1500,1800,2100,2400,2700,2,0,1,0.25,0.25,0.25,0.25,0.25,0.25,0.25,0.25,0.25,0,0,0.07499999999999998,0.07499999999999998,0.07499999999999998,0.07499999999999998,0.07499999999999998,0.07499999999999998,0.07499999999999998,0.07499999999999998,0.07499999999999998,0,linear,NA,0.025,0.001,0.001,1.0991208017965741,1.0991208017965742e-4,reasonable,0.001,0.001,25,2,0.002,1,1000,4,4000,1000,TRUE,0.1,0,0.5,TRUE,10,sepmodel,0.023,-4.899624206928958e-4,0.008281359285423942,0,1000
10,250,0,300,600,900,1200,1500,1800,2100,2400,2700,2,0,1,0.25,0.25,0.25,0.25,0.25,0.25,0.25,0.25,0.25,0,0,0.07499999999999998,0.07499999999999998,0.07499999999999998,0.07499999999999998,0.07499999999999998,0.07499999999999998,0.07499999999999998,0.07499999999999998,0.07499999999999998,0,linear,NA,0.025,0.001,0.001,1.0991208017965741,1.0991208017965742e-4,reasonable,0.001,0.001,25,2,0.002,1,1000,4,4000,1000,TRUE,0.1,0,0.5,TRUE,10,timemachine,0.022,-0.0029567195117275523,0.0060867676366036854,0,1000
10,250,0,300,600,900,1200,1500,1800,2100,2400,2700,2,0,1,0.25,0.25,0.25,0.25,0.25,0.25,0.25,0.25,0.25,0,0,0.11250000000000002,0.11250000000000002,0.11250000000000002,0.11250000000000002,0.11250000000000002,0.11250000000000002,0.11250000000000002,0.11250000000000002,0.11250000000000002,0,linear,NA,0.025,0.001,0.001,1.0991208017965741,1.0991208017965742e-4,reasonable,0.001,0.001,25,2,0.002,1,1000,4,4000,1000,TRUE,0.1,0,0.5,TRUE,10,fixmodel,0.029,7.020714276507637e-4,0.007381832695520155,0,1000
10,250,0,300,600,900,1200,1500,1800,2100,2400,2700,2,0,1,0.25,0.25,0.25,0.25,0.25,0.25,0.25,0.25,0.25,0,0,0.11250000000000002,0.11250000000000002,0.11250000000000002,0.11250000000000002,0.11250000000000002,0.11250000000000002,0.11250000000000002,0.11250000000000002,0.11250000000000002,0,linear,NA,0.025,0.001,0.001,1.0991208017965741,1.0991208017965742e-4,reasonable,0.001,0.001,25,2,0.002,1,1000,4,4000,1000,TRUE,0.1,0,0.5,TRUE,10,MAPpriorNew,0.024,0.005100652424753655,0.00609151545883527,0,1000
10,250,0,300,600,900,1200,1500,1800,2100,2400,2700,2,0,1,0.25,0.25,0.25,0.25,0.25,0.25,0.25,0.25,0.25,0,0,0.11250000000000002,0.11250000000000002,0.11250000000000002,0.11250000000000002,0.11250000000000002,0.11250000000000002,0.11250000000000002,0.11250000000000002,0.11250000000000002,0,linear,NA,0.025,0.001,0.001,1.0991208017965741,1.0991208017965742e-4,reasonable,0.001,0.001,25,2,0.002,1,1000,4,4000,1000,TRUE,0.1,0,0.5,TRUE,10,poolmodel,0.031,0.003939441081303886,0.005112609460127578,0,1000
10,250,0,300,600,900,1200,1500,1800,2100,2400,2700,2,0,1,0.25,0.25,0.25,0.25,0.25,0.25,0.25,0.25,0.25,0,0,0.11250000000000002,0.11250000000000002,0.11250000000000002,0.11250000000000002,0.11250000000000002,0.11250000000000002,0.11250000000000002,0.11250000000000002,0.11250000000000002,0,linear,NA,0.025,0.001,0.001,1.0991208017965741,1.0991208017965742e-4,reasonable,0.001,0.001,25,2,0.002,1,1000,4,4000,1000,TRUE,0.1,0,0.5,TRUE,10,sepmodel,0.033,0.005761196716442666,0.008574535382184315,0,1000
10,250,0,300,600,900,1200,1500,1800,2100,2400,2700,2,0,1,0.25,0.25,0.25,0.25,0.25,0.25,0.25,0.25,0.25,0,0,0.11250000000000002,0.11250000000000002,0.11250000000000002,0.11250000000000002,0.11250000000000002,0.11250000000000002,0.11250000000000002,0.11250000000000002,0.11250000000000002,0,linear,NA,0.025,0.001,0.001,1.0991208017965741,1.0991208017965742e-4,reasonable,0.001,0.001,25,2,0.002,1,1000,4,4000,1000,TRUE,0.1,0,0.5,TRUE,10,timemachine,0.031,0.0036369377392536195,0.006015453290672215,0,1000
10,250,0,300,600,900,1200,1500,1800,2100,2400,2700,2,0,1,0.25,0.25,0.25,0.25,0.25,0.25,0.25,0.25,0.25,0,0,0.15,0.15,0.15,0.15,0.15,0.15,0.15,0.15,0.15,0,linear,NA,0.025,0.001,0.001,1.0991208017965741,1.0991208017965742e-4,reasonable,0.001,0.001,25,2,0.002,1,1000,4,4000,1000,TRUE,0.1,0,0.5,TRUE,10,fixmodel,0.018,-0.015199380084759313,0.007822826427590196,0,1000
10,250,0,300,600,900,1200,1500,1800,2100,2400,2700,2,0,1,0.25,0.25,0.25,0.25,0.25,0.25,0.25,0.25,0.25,0,0,0.15,0.15,0.15,0.15,0.15,0.15,0.15,0.15,0.15,0,linear,NA,0.025,0.001,0.001,1.0991208017965741,1.0991208017965742e-4,reasonable,0.001,0.001,25,2,0.002,1,1000,4,4000,1000,TRUE,0.1,0,0.5,TRUE,10,MAPpriorNew,0.023,-0.006232738625879145,0.0062002706036554,0,1000
10,250,0,300,600,900,1200,1500,1800,2100,2400,2700,2,0,1,0.25,0.25,0.25,0.25,0.25,0.25,0.25,0.25,0.25,0,0,0.15,0.15,0.15,0.15,0.15,0.15,0.15,0.15,0.15,0,linear,NA,0.025,0.001,0.001,1.0991208017965741,1.0991208017965742e-4,reasonable,0.001,0.001,25,2,0.002,1,1000,4,4000,1000,TRUE,0.1,0,0.5,TRUE,10,poolmodel,0.029,-0.004949019533738419,0.005375940518342289,0,1000
10,250,0,300,600,900,1200,1500,1800,2100,2400,2700,2,0,1,0.25,0.25,0.25,0.25,0.25,0.25,0.25,0.25,0.25,0,0,0.15,0.15,0.15,0.15,0.15,0.15,0.15,0.15,0.15,0,linear,NA,0.025,0.001,0.001,1.0991208017965741,1.0991208017965742e-4,reasonable,0.001,0.001,25,2,0.002,1,1000,4,4000,1000,TRUE,0.1,0,0.5,TRUE,10,sepmodel,0.023,-0.00744507013323442,0.00845234101045428,0,1000
10,250,0,300,600,900,1200,1500,1800,2100,2400,2700,2,0,1,0.25,0.25,0.25,0.25,0.25,0.25,0.25,0.25,0.25,0,0,0.15,0.15,0.15,0.15,0.15,0.15,0.15,0.15,0.15,0,linear,NA,0.025,0.001,0.001,1.0991208017965741,1.0991208017965742e-4,reasonable,0.001,0.001,25,2,0.002,1,1000,4,4000,1000,TRUE,0.1,0,0.5,TRUE,10,timemachine,0.022,-0.007530577869675057,0.006183741879399938,0,1000
