pavlakrotka/NCC_MethodsComp/extra_material/results/results_iii_i_diff_alpha.csv
num_arms,n_arm,d1,d2,d3,d4,d5,d6,d7,d8,d9,d10,period_blocks,mu0,sigma,theta1,theta2,theta3,theta4,theta5,theta6,theta7,theta8,theta9,theta10,lambda0,lambda1,lambda2,lambda3,lambda4,lambda5,lambda6,lambda7,lambda8,lambda9,lambda10,trend,N_peak,alpha,prec_theta,prec_eta,tau_a,tau_b,tau_case,prec_a,prec_b,bucket_size,opt,prior_prec_tau,prior_prec_eta,n_samples,n_chains,n_iter,n_adapt,robustify,weight,trend_mean,trend_var,ncc,study_arm,model,reject_h0,bias,MSE,failed,nsim
10,250,0,300,600,900,1200,1500,1800,2100,2400,2700,2,0,1,0,0,0,0,0,0,0,0,0,0,0,-0.15,-0.15,-0.15,-0.15,-0.15,-0.15,-0.15,-0.15,-0.15,0,linear,NA,0.025,0.001,0.001,1.0991208017965741,1.0991208017965742e-4,reasonable,0.001,0.001,25,2,0.002,1,1000,4,4000,1000,TRUE,0.1,0,0.5,TRUE,10,fixmodel,0.033,0.008819889619662258,0.007377644265878867,0,1000
10,250,0,300,600,900,1200,1500,1800,2100,2400,2700,2,0,1,0,0,0,0,0,0,0,0,0,0,0,-0.15,-0.15,-0.15,-0.15,-0.15,-0.15,-0.15,-0.15,-0.15,0,linear,NA,0.025,0.001,0.001,1.0991208017965741,1.0991208017965742e-4,reasonable,0.001,0.001,25,2,0.002,1,1000,4,4000,1000,TRUE,0.1,0,0.5,TRUE,10,MAPpriorNew,0.02,-8.009116495559201e-4,0.005696140477903314,0,1000
10,250,0,300,600,900,1200,1500,1800,2100,2400,2700,2,0,1,0,0,0,0,0,0,0,0,0,0,0,-0.15,-0.15,-0.15,-0.15,-0.15,-0.15,-0.15,-0.15,-0.15,0,linear,NA,0.025,0.001,0.001,1.0991208017965741,1.0991208017965742e-4,reasonable,0.001,0.001,25,2,0.002,1,1000,4,4000,1000,TRUE,0.1,0,0.5,TRUE,10,poolmodel,0.026,-0.0018392801366442265,0.00493675282141433,0,1000
10,250,0,300,600,900,1200,1500,1800,2100,2400,2700,2,0,1,0,0,0,0,0,0,0,0,0,0,0,-0.15,-0.15,-0.15,-0.15,-0.15,-0.15,-0.15,-0.15,-0.15,0,linear,NA,0.025,0.001,0.001,1.0991208017965741,1.0991208017965742e-4,reasonable,0.001,0.001,25,2,0.002,1,1000,4,4000,1000,TRUE,0.1,0,0.5,TRUE,10,sepmodel,0.025,1.1526163755661715e-4,0.008066578794132024,0,1000
10,250,0,300,600,900,1200,1500,1800,2100,2400,2700,2,0,1,0,0,0,0,0,0,0,0,0,0,0,-0.15,-0.15,-0.15,-0.15,-0.15,-0.15,-0.15,-0.15,-0.15,0,linear,NA,0.025,0.001,0.001,1.0991208017965741,1.0991208017965742e-4,reasonable,0.001,0.001,25,2,0.002,1,1000,4,4000,1000,TRUE,0.1,0,0.5,TRUE,10,timemachine,0.034,0.0038126669290640073,0.005827338908310932,0,1000
10,250,0,300,600,900,1200,1500,1800,2100,2400,2700,2,0,1,0,0,0,0,0,0,0,0,0,0,0,-0.11249999999999999,-0.11249999999999999,-0.11249999999999999,-0.11249999999999999,-0.11249999999999999,-0.11249999999999999,-0.11249999999999999,-0.11249999999999999,-0.11249999999999999,0,linear,NA,0.025,0.001,0.001,1.0991208017965741,1.0991208017965742e-4,reasonable,0.001,0.001,25,2,0.002,1,1000,4,4000,1000,TRUE,0.1,0,0.5,TRUE,10,fixmodel,0.036,0.005213854794841037,0.007670189900694547,0,1000
10,250,0,300,600,900,1200,1500,1800,2100,2400,2700,2,0,1,0,0,0,0,0,0,0,0,0,0,0,-0.11249999999999999,-0.11249999999999999,-0.11249999999999999,-0.11249999999999999,-0.11249999999999999,-0.11249999999999999,-0.11249999999999999,-0.11249999999999999,-0.11249999999999999,0,linear,NA,0.025,0.001,0.001,1.0991208017965741,1.0991208017965742e-4,reasonable,0.001,0.001,25,2,0.002,1,1000,4,4000,1000,TRUE,0.1,0,0.5,TRUE,10,MAPpriorNew,0.026,4.5964847802389635e-4,0.006212585884570008,0,1000
10,250,0,300,600,900,1200,1500,1800,2100,2400,2700,2,0,1,0,0,0,0,0,0,0,0,0,0,0,-0.11249999999999999,-0.11249999999999999,-0.11249999999999999,-0.11249999999999999,-0.11249999999999999,-0.11249999999999999,-0.11249999999999999,-0.11249999999999999,-0.11249999999999999,0,linear,NA,0.025,0.001,0.001,1.0991208017965741,1.0991208017965742e-4,reasonable,0.001,0.001,25,2,0.002,1,1000,4,4000,1000,TRUE,0.1,0,0.5,TRUE,10,poolmodel,0.032,5.831569881073044e-4,0.005415515416432943,0,1000
10,250,0,300,600,900,1200,1500,1800,2100,2400,2700,2,0,1,0,0,0,0,0,0,0,0,0,0,0,-0.11249999999999999,-0.11249999999999999,-0.11249999999999999,-0.11249999999999999,-0.11249999999999999,-0.11249999999999999,-0.11249999999999999,-0.11249999999999999,-0.11249999999999999,0,linear,NA,0.025,0.001,0.001,1.0991208017965741,1.0991208017965742e-4,reasonable,0.001,0.001,25,2,0.002,1,1000,4,4000,1000,TRUE,0.1,0,0.5,TRUE,10,sepmodel,0.025,-3.4968722376539e-4,0.008666994265631488,0,1000
10,250,0,300,600,900,1200,1500,1800,2100,2400,2700,2,0,1,0,0,0,0,0,0,0,0,0,0,0,-0.11249999999999999,-0.11249999999999999,-0.11249999999999999,-0.11249999999999999,-0.11249999999999999,-0.11249999999999999,-0.11249999999999999,-0.11249999999999999,-0.11249999999999999,0,linear,NA,0.025,0.001,0.001,1.0991208017965741,1.0991208017965742e-4,reasonable,0.001,0.001,25,2,0.002,1,1000,4,4000,1000,TRUE,0.1,0,0.5,TRUE,10,timemachine,0.032,0.004250636628941986,0.0064079577002844985,0,1000
10,250,0,300,600,900,1200,1500,1800,2100,2400,2700,2,0,1,0,0,0,0,0,0,0,0,0,0,0,-0.075,-0.075,-0.075,-0.075,-0.075,-0.075,-0.075,-0.075,-0.075,0,linear,NA,0.025,0.001,0.001,1.0991208017965741,1.0991208017965742e-4,reasonable,0.001,0.001,25,2,0.002,1,1000,4,4000,1000,TRUE,0.1,0,0.5,TRUE,10,fixmodel,0.027,0.005492237734201972,0.0071963778908737215,0,1000
10,250,0,300,600,900,1200,1500,1800,2100,2400,2700,2,0,1,0,0,0,0,0,0,0,0,0,0,0,-0.075,-0.075,-0.075,-0.075,-0.075,-0.075,-0.075,-0.075,-0.075,0,linear,NA,0.025,0.001,0.001,1.0991208017965741,1.0991208017965742e-4,reasonable,0.001,0.001,25,2,0.002,1,1000,4,4000,1000,TRUE,0.1,0,0.5,TRUE,10,MAPpriorNew,0.02,0.002028562021038618,0.005776957544086969,0,1000
10,250,0,300,600,900,1200,1500,1800,2100,2400,2700,2,0,1,0,0,0,0,0,0,0,0,0,0,0,-0.075,-0.075,-0.075,-0.075,-0.075,-0.075,-0.075,-0.075,-0.075,0,linear,NA,0.025,0.001,0.001,1.0991208017965741,1.0991208017965742e-4,reasonable,0.001,0.001,25,2,0.002,1,1000,4,4000,1000,TRUE,0.1,0,0.5,TRUE,10,poolmodel,0.024,0.002851374299410406,0.004849556992506422,0,1000
10,250,0,300,600,900,1200,1500,1800,2100,2400,2700,2,0,1,0,0,0,0,0,0,0,0,0,0,0,-0.075,-0.075,-0.075,-0.075,-0.075,-0.075,-0.075,-0.075,-0.075,0,linear,NA,0.025,0.001,0.001,1.0991208017965741,1.0991208017965742e-4,reasonable,0.001,0.001,25,2,0.002,1,1000,4,4000,1000,TRUE,0.1,0,0.5,TRUE,10,sepmodel,0.024,8.951587591479756e-4,0.008230793511464217,0,1000
10,250,0,300,600,900,1200,1500,1800,2100,2400,2700,2,0,1,0,0,0,0,0,0,0,0,0,0,0,-0.075,-0.075,-0.075,-0.075,-0.075,-0.075,-0.075,-0.075,-0.075,0,linear,NA,0.025,0.001,0.001,1.0991208017965741,1.0991208017965742e-4,reasonable,0.001,0.001,25,2,0.002,1,1000,4,4000,1000,TRUE,0.1,0,0.5,TRUE,10,timemachine,0.022,0.004940375946845742,0.005723908150299809,0,1000
10,250,0,300,600,900,1200,1500,1800,2100,2400,2700,2,0,1,0,0,0,0,0,0,0,0,0,0,0,-0.037500000000000006,-0.037500000000000006,-0.037500000000000006,-0.037500000000000006,-0.037500000000000006,-0.037500000000000006,-0.037500000000000006,-0.037500000000000006,-0.037500000000000006,0,linear,NA,0.025,0.001,0.001,1.0991208017965741,1.0991208017965742e-4,reasonable,0.001,0.001,25,2,0.002,1,1000,4,4000,1000,TRUE,0.1,0,0.5,TRUE,10,fixmodel,0.04,0.00400398948893798,0.007435869507315299,0,1000
10,250,0,300,600,900,1200,1500,1800,2100,2400,2700,2,0,1,0,0,0,0,0,0,0,0,0,0,0,-0.037500000000000006,-0.037500000000000006,-0.037500000000000006,-0.037500000000000006,-0.037500000000000006,-0.037500000000000006,-0.037500000000000006,-0.037500000000000006,-0.037500000000000006,0,linear,NA,0.025,0.001,0.001,1.0991208017965741,1.0991208017965742e-4,reasonable,0.001,0.001,25,2,0.002,1,1000,4,4000,1000,TRUE,0.1,0,0.5,TRUE,10,MAPpriorNew,0.024,8.269196924947675e-4,0.006066564074604211,0,1000
10,250,0,300,600,900,1200,1500,1800,2100,2400,2700,2,0,1,0,0,0,0,0,0,0,0,0,0,0,-0.037500000000000006,-0.037500000000000006,-0.037500000000000006,-0.037500000000000006,-0.037500000000000006,-0.037500000000000006,-0.037500000000000006,-0.037500000000000006,-0.037500000000000006,0,linear,NA,0.025,0.001,0.001,1.0991208017965741,1.0991208017965742e-4,reasonable,0.001,0.001,25,2,0.002,1,1000,4,4000,1000,TRUE,0.1,0,0.5,TRUE,10,poolmodel,0.03,3.162869378293127e-4,0.005196598994135799,0,1000
10,250,0,300,600,900,1200,1500,1800,2100,2400,2700,2,0,1,0,0,0,0,0,0,0,0,0,0,0,-0.037500000000000006,-0.037500000000000006,-0.037500000000000006,-0.037500000000000006,-0.037500000000000006,-0.037500000000000006,-0.037500000000000006,-0.037500000000000006,-0.037500000000000006,0,linear,NA,0.025,0.001,0.001,1.0991208017965741,1.0991208017965742e-4,reasonable,0.001,0.001,25,2,0.002,1,1000,4,4000,1000,TRUE,0.1,0,0.5,TRUE,10,sepmodel,0.034,0.0012508410567784367,0.0083824690276596385,0,1000
10,250,0,300,600,900,1200,1500,1800,2100,2400,2700,2,0,1,0,0,0,0,0,0,0,0,0,0,0,-0.037500000000000006,-0.037500000000000006,-0.037500000000000006,-0.037500000000000006,-0.037500000000000006,-0.037500000000000006,-0.037500000000000006,-0.037500000000000006,-0.037500000000000006,0,linear,NA,0.025,0.001,0.001,1.0991208017965741,1.0991208017965742e-4,reasonable,0.001,0.001,25,2,0.002,1,1000,4,4000,1000,TRUE,0.1,0,0.5,TRUE,10,timemachine,0.031,0.005661731421009175,0.005926013324612568,0,1000
10,250,0,300,600,900,1200,1500,1800,2100,2400,2700,2,0,1,0,0,0,0,0,0,0,0,0,0,0,0,0,0,0,0,0,0,0,0,0,linear,NA,0.025,0.001,0.001,1.0991208017965741,1.0991208017965742e-4,reasonable,0.001,0.001,25,2,0.002,1,1000,4,4000,1000,TRUE,0.1,0,0.5,TRUE,10,fixmodel,0.021,0.0013916897390829804,0.006826170661196034,0,1000
10,250,0,300,600,900,1200,1500,1800,2100,2400,2700,2,0,1,0,0,0,0,0,0,0,0,0,0,0,0,0,0,0,0,0,0,0,0,0,linear,NA,0.025,0.001,0.001,1.0991208017965741,1.0991208017965742e-4,reasonable,0.001,0.001,25,2,0.002,1,1000,4,4000,1000,TRUE,0.1,0,0.5,TRUE,10,MAPpriorNew,0.015,9.220900272932665e-4,0.005588935881975659,0,1000
10,250,0,300,600,900,1200,1500,1800,2100,2400,2700,2,0,1,0,0,0,0,0,0,0,0,0,0,0,0,0,0,0,0,0,0,0,0,0,linear,NA,0.025,0.001,0.001,1.0991208017965741,1.0991208017965742e-4,reasonable,0.001,0.001,25,2,0.002,1,1000,4,4000,1000,TRUE,0.1,0,0.5,TRUE,10,poolmodel,0.017,-5.850358221779442e-4,0.004746020686043636,0,1000
10,250,0,300,600,900,1200,1500,1800,2100,2400,2700,2,0,1,0,0,0,0,0,0,0,0,0,0,0,0,0,0,0,0,0,0,0,0,0,linear,NA,0.025,0.001,0.001,1.0991208017965741,1.0991208017965742e-4,reasonable,0.001,0.001,25,2,0.002,1,1000,4,4000,1000,TRUE,0.1,0,0.5,TRUE,10,sepmodel,0.02,0.0022176746202425142,0.00784280591132082,0,1000
10,250,0,300,600,900,1200,1500,1800,2100,2400,2700,2,0,1,0,0,0,0,0,0,0,0,0,0,0,0,0,0,0,0,0,0,0,0,0,linear,NA,0.025,0.001,0.001,1.0991208017965741,1.0991208017965742e-4,reasonable,0.001,0.001,25,2,0.002,1,1000,4,4000,1000,TRUE,0.1,0,0.5,TRUE,10,timemachine,0.018,-0.0021554446344207584,0.005389181110694439,0,1000
10,250,0,300,600,900,1200,1500,1800,2100,2400,2700,2,0,1,0,0,0,0,0,0,0,0,0,0,0,0.037500000000000006,0.037500000000000006,0.037500000000000006,0.037500000000000006,0.037500000000000006,0.037500000000000006,0.037500000000000006,0.037500000000000006,0.037500000000000006,0,linear,NA,0.025,0.001,0.001,1.0991208017965741,1.0991208017965742e-4,reasonable,0.001,0.001,25,2,0.002,1,1000,4,4000,1000,TRUE,0.1,0,0.5,TRUE,10,fixmodel,0.023,-1.8490355083586283e-4,0.006826201082054033,0,1000
10,250,0,300,600,900,1200,1500,1800,2100,2400,2700,2,0,1,0,0,0,0,0,0,0,0,0,0,0,0.037500000000000006,0.037500000000000006,0.037500000000000006,0.037500000000000006,0.037500000000000006,0.037500000000000006,0.037500000000000006,0.037500000000000006,0.037500000000000006,0,linear,NA,0.025,0.001,0.001,1.0991208017965741,1.0991208017965742e-4,reasonable,0.001,0.001,25,2,0.002,1,1000,4,4000,1000,TRUE,0.1,0,0.5,TRUE,10,MAPpriorNew,0.02,0.001868603446088075,0.0056668470966478755,0,1000
10,250,0,300,600,900,1200,1500,1800,2100,2400,2700,2,0,1,0,0,0,0,0,0,0,0,0,0,0,0.037500000000000006,0.037500000000000006,0.037500000000000006,0.037500000000000006,0.037500000000000006,0.037500000000000006,0.037500000000000006,0.037500000000000006,0.037500000000000006,0,linear,NA,0.025,0.001,0.001,1.0991208017965741,1.0991208017965742e-4,reasonable,0.001,0.001,25,2,0.002,1,1000,4,4000,1000,TRUE,0.1,0,0.5,TRUE,10,poolmodel,0.027,0.0018869201361091938,0.004984755677916297,0,1000
10,250,0,300,600,900,1200,1500,1800,2100,2400,2700,2,0,1,0,0,0,0,0,0,0,0,0,0,0,0.037500000000000006,0.037500000000000006,0.037500000000000006,0.037500000000000006,0.037500000000000006,0.037500000000000006,0.037500000000000006,0.037500000000000006,0.037500000000000006,0,linear,NA,0.025,0.001,0.001,1.0991208017965741,1.0991208017965742e-4,reasonable,0.001,0.001,25,2,0.002,1,1000,4,4000,1000,TRUE,0.1,0,0.5,TRUE,10,sepmodel,0.022,0.0020106520010337724,0.007715171425987203,0,1000
10,250,0,300,600,900,1200,1500,1800,2100,2400,2700,2,0,1,0,0,0,0,0,0,0,0,0,0,0,0.037500000000000006,0.037500000000000006,0.037500000000000006,0.037500000000000006,0.037500000000000006,0.037500000000000006,0.037500000000000006,0.037500000000000006,0.037500000000000006,0,linear,NA,0.025,0.001,0.001,1.0991208017965741,1.0991208017965742e-4,reasonable,0.001,0.001,25,2,0.002,1,1000,4,4000,1000,TRUE,0.1,0,0.5,TRUE,10,timemachine,0.017,8.923706347463951e-4,0.005647692280976696,0,1000
10,250,0,300,600,900,1200,1500,1800,2100,2400,2700,2,0,1,0,0,0,0,0,0,0,0,0,0,0,0.07499999999999998,0.07499999999999998,0.07499999999999998,0.07499999999999998,0.07499999999999998,0.07499999999999998,0.07499999999999998,0.07499999999999998,0.07499999999999998,0,linear,NA,0.025,0.001,0.001,1.0991208017965741,1.0991208017965742e-4,reasonable,0.001,0.001,25,2,0.002,1,1000,4,4000,1000,TRUE,0.1,0,0.5,TRUE,10,fixmodel,0.028,-0.0016098506189279429,0.007218759782643622,0,1000
10,250,0,300,600,900,1200,1500,1800,2100,2400,2700,2,0,1,0,0,0,0,0,0,0,0,0,0,0,0.07499999999999998,0.07499999999999998,0.07499999999999998,0.07499999999999998,0.07499999999999998,0.07499999999999998,0.07499999999999998,0.07499999999999998,0.07499999999999998,0,linear,NA,0.025,0.001,0.001,1.0991208017965741,1.0991208017965742e-4,reasonable,0.001,0.001,25,2,0.002,1,1000,4,4000,1000,TRUE,0.1,0,0.5,TRUE,10,MAPpriorNew,0.026,0.0030671189396520417,0.005811373669389216,0,1000
10,250,0,300,600,900,1200,1500,1800,2100,2400,2700,2,0,1,0,0,0,0,0,0,0,0,0,0,0,0.07499999999999998,0.07499999999999998,0.07499999999999998,0.07499999999999998,0.07499999999999998,0.07499999999999998,0.07499999999999998,0.07499999999999998,0.07499999999999998,0,linear,NA,0.025,0.001,0.001,1.0991208017965741,1.0991208017965742e-4,reasonable,0.001,0.001,25,2,0.002,1,1000,4,4000,1000,TRUE,0.1,0,0.5,TRUE,10,poolmodel,0.031,0.002341673008716113,0.005025079412952292,0,1000
10,250,0,300,600,900,1200,1500,1800,2100,2400,2700,2,0,1,0,0,0,0,0,0,0,0,0,0,0,0.07499999999999998,0.07499999999999998,0.07499999999999998,0.07499999999999998,0.07499999999999998,0.07499999999999998,0.07499999999999998,0.07499999999999998,0.07499999999999998,0,linear,NA,0.025,0.001,0.001,1.0991208017965741,1.0991208017965742e-4,reasonable,0.001,0.001,25,2,0.002,1,1000,4,4000,1000,TRUE,0.1,0,0.5,TRUE,10,sepmodel,0.029,0.0033506515134951336,0.008071110808024256,0,1000
10,250,0,300,600,900,1200,1500,1800,2100,2400,2700,2,0,1,0,0,0,0,0,0,0,0,0,0,0,0.07499999999999998,0.07499999999999998,0.07499999999999998,0.07499999999999998,0.07499999999999998,0.07499999999999998,0.07499999999999998,0.07499999999999998,0.07499999999999998,0,linear,NA,0.025,0.001,0.001,1.0991208017965741,1.0991208017965742e-4,reasonable,0.001,0.001,25,2,0.002,1,1000,4,4000,1000,TRUE,0.1,0,0.5,TRUE,10,timemachine,0.026,-0.0012521503888673182,0.005694339754779609,0,1000
10,250,0,300,600,900,1200,1500,1800,2100,2400,2700,2,0,1,0,0,0,0,0,0,0,0,0,0,0,0.11250000000000002,0.11250000000000002,0.11250000000000002,0.11250000000000002,0.11250000000000002,0.11250000000000002,0.11250000000000002,0.11250000000000002,0.11250000000000002,0,linear,NA,0.025,0.001,0.001,1.0991208017965741,1.0991208017965742e-4,reasonable,0.001,0.001,25,2,0.002,1,1000,4,4000,1000,TRUE,0.1,0,0.5,TRUE,10,fixmodel,0.018,-0.005765865484961465,0.006560773936443334,0,1000
10,250,0,300,600,900,1200,1500,1800,2100,2400,2700,2,0,1,0,0,0,0,0,0,0,0,0,0,0,0.11250000000000002,0.11250000000000002,0.11250000000000002,0.11250000000000002,0.11250000000000002,0.11250000000000002,0.11250000000000002,0.11250000000000002,0.11250000000000002,0,linear,NA,0.025,0.001,0.001,1.0991208017965741,1.0991208017965742e-4,reasonable,0.001,0.001,25,2,0.002,1,1000,4,4000,1000,TRUE,0.1,0,0.5,TRUE,10,MAPpriorNew,0.015,1.652742005735208e-4,0.005188276306608717,0,1000
10,250,0,300,600,900,1200,1500,1800,2100,2400,2700,2,0,1,0,0,0,0,0,0,0,0,0,0,0,0.11250000000000002,0.11250000000000002,0.11250000000000002,0.11250000000000002,0.11250000000000002,0.11250000000000002,0.11250000000000002,0.11250000000000002,0.11250000000000002,0,linear,NA,0.025,0.001,0.001,1.0991208017965741,1.0991208017965742e-4,reasonable,0.001,0.001,25,2,0.002,1,1000,4,4000,1000,TRUE,0.1,0,0.5,TRUE,10,poolmodel,0.016,-9.78086130909122e-4,0.0045361727018007544,0,1000
10,250,0,300,600,900,1200,1500,1800,2100,2400,2700,2,0,1,0,0,0,0,0,0,0,0,0,0,0,0.11250000000000002,0.11250000000000002,0.11250000000000002,0.11250000000000002,0.11250000000000002,0.11250000000000002,0.11250000000000002,0.11250000000000002,0.11250000000000002,0,linear,NA,0.025,0.001,0.001,1.0991208017965741,1.0991208017965742e-4,reasonable,0.001,0.001,25,2,0.002,1,1000,4,4000,1000,TRUE,0.1,0,0.5,TRUE,10,sepmodel,0.022,0.0011850098418805422,0.007493730476980699,0,1000
10,250,0,300,600,900,1200,1500,1800,2100,2400,2700,2,0,1,0,0,0,0,0,0,0,0,0,0,0,0.11250000000000002,0.11250000000000002,0.11250000000000002,0.11250000000000002,0.11250000000000002,0.11250000000000002,0.11250000000000002,0.11250000000000002,0.11250000000000002,0,linear,NA,0.025,0.001,0.001,1.0991208017965741,1.0991208017965742e-4,reasonable,0.001,0.001,25,2,0.002,1,1000,4,4000,1000,TRUE,0.1,0,0.5,TRUE,10,timemachine,0.016,-0.002345187393173363,0.00534063989348238,0,1000
10,250,0,300,600,900,1200,1500,1800,2100,2400,2700,2,0,1,0,0,0,0,0,0,0,0,0,0,0,0.15,0.15,0.15,0.15,0.15,0.15,0.15,0.15,0.15,0,linear,NA,0.025,0.001,0.001,1.0991208017965741,1.0991208017965742e-4,reasonable,0.001,0.001,25,2,0.002,1,1000,4,4000,1000,TRUE,0.1,0,0.5,TRUE,10,fixmodel,0.017,-0.007587883628127181,0.007171971106933018,0,1000
10,250,0,300,600,900,1200,1500,1800,2100,2400,2700,2,0,1,0,0,0,0,0,0,0,0,0,0,0,0.15,0.15,0.15,0.15,0.15,0.15,0.15,0.15,0.15,0,linear,NA,0.025,0.001,0.001,1.0991208017965741,1.0991208017965742e-4,reasonable,0.001,0.001,25,2,0.002,1,1000,4,4000,1000,TRUE,0.1,0,0.5,TRUE,10,MAPpriorNew,0.018,0.0017884183858748726,0.005687246635212411,0,1000
10,250,0,300,600,900,1200,1500,1800,2100,2400,2700,2,0,1,0,0,0,0,0,0,0,0,0,0,0,0.15,0.15,0.15,0.15,0.15,0.15,0.15,0.15,0.15,0,linear,NA,0.025,0.001,0.001,1.0991208017965741,1.0991208017965742e-4,reasonable,0.001,0.001,25,2,0.002,1,1000,4,4000,1000,TRUE,0.1,0,0.5,TRUE,10,poolmodel,0.024,8.378012399194108e-4,0.004938043362335208,0,1000
10,250,0,300,600,900,1200,1500,1800,2100,2400,2700,2,0,1,0,0,0,0,0,0,0,0,0,0,0,0.15,0.15,0.15,0.15,0.15,0.15,0.15,0.15,0.15,0,linear,NA,0.025,0.001,0.001,1.0991208017965741,1.0991208017965742e-4,reasonable,0.001,0.001,25,2,0.002,1,1000,4,4000,1000,TRUE,0.1,0,0.5,TRUE,10,sepmodel,0.027,0.002108553886656947,0.007960447046791665,0,1000
10,250,0,300,600,900,1200,1500,1800,2100,2400,2700,2,0,1,0,0,0,0,0,0,0,0,0,0,0,0.15,0.15,0.15,0.15,0.15,0.15,0.15,0.15,0.15,0,linear,NA,0.025,0.001,0.001,1.0991208017965741,1.0991208017965742e-4,reasonable,0.001,0.001,25,2,0.002,1,1000,4,4000,1000,TRUE,0.1,0,0.5,TRUE,10,timemachine,0.018,-0.0016483109005168627,0.0056180328448503,0,1000
