pavlakrotka/NCC_MethodsComp/supp_material/results/results_iii_ii_rand_pow.csv
num_arms,n_arm,d1,d2,d3,d4,d5,d6,d7,d8,d9,d10,period_blocks,mu0,sigma,theta1,theta2,theta3,theta4,theta5,theta6,theta7,theta8,theta9,theta10,lambda0,lambda1,lambda2,lambda3,lambda4,lambda5,lambda6,lambda7,lambda8,lambda9,lambda10,trend,N_peak,trend_mean,trend_var,alpha,prec_theta,prec_eta,tau_a,tau_b,tau_case,prec_a,prec_b,bucket_size,opt,prior_prec_tau,prior_prec_eta,n_samples,n_chains,n_iter,n_adapt,robustify,weight,ncc,study_arm,model,reject_h0,bias,MSE,failed,nsim
10,250,0,300,600,900,1200,1500,1800,2100,2400,2700,2,0,1,0.25,0.25,0.25,0.25,0.25,0.25,0.25,0.25,0.25,0.25,-0.15,random,random,random,random,random,random,random,random,random,-0.15,linear,NA,-0.15,0.5,0.025,0.001,0.001,1.0991208017965741,1.0991208017965742e-4,reasonable,0.001,0.001,25,2,0.002,1,1000,4,4000,1000,TRUE,0.1,TRUE,10,fixmodel,0.8392,2.3414680011450988e-4,0.0074748271652107,0,10000
10,250,0,300,600,900,1200,1500,1800,2100,2400,2700,2,0,1,0.25,0.25,0.25,0.25,0.25,0.25,0.25,0.25,0.25,0.25,-0.15,random,random,random,random,random,random,random,random,random,-0.15,linear,NA,-0.15,0.5,0.025,0.001,0.001,1.0991208017965741,1.0991208017965742e-4,reasonable,0.001,0.001,25,2,0.002,1,1000,4,4000,1000,TRUE,0.1,TRUE,10,MAPpriorNew,0.7944,-0.028190506075622627,0.007181977111083184,0,10000
10,250,0,300,600,900,1200,1500,1800,2100,2400,2700,2,0,1,0.25,0.25,0.25,0.25,0.25,0.25,0.25,0.25,0.25,0.25,-0.15,random,random,random,random,random,random,random,random,random,-0.15,linear,NA,-0.15,0.5,0.025,0.001,0.001,1.0991208017965741,1.0991208017965742e-4,reasonable,0.001,0.001,25,2,0.002,1,1000,4,4000,1000,TRUE,0.1,TRUE,10,poolmodel,0.747,-0.06539988867358244,0.00921790600481343,0,10000
10,250,0,300,600,900,1200,1500,1800,2100,2400,2700,2,0,1,0.25,0.25,0.25,0.25,0.25,0.25,0.25,0.25,0.25,0.25,-0.15,random,random,random,random,random,random,random,random,random,-0.15,linear,NA,-0.15,0.5,0.025,0.001,0.001,1.0991208017965741,1.0991208017965742e-4,reasonable,0.001,0.001,25,2,0.002,1,1000,4,4000,1000,TRUE,0.1,TRUE,10,sepmodel,0.8017,8.130868532536543e-4,0.00807450318067672,0,10000
10,250,0,300,600,900,1200,1500,1800,2100,2400,2700,2,0,1,0.25,0.25,0.25,0.25,0.25,0.25,0.25,0.25,0.25,0.25,-0.15,random,random,random,random,random,random,random,random,random,-0.15,linear,NA,-0.15,0.5,0.025,0.001,0.001,1.0991208017965741,1.0991208017965742e-4,reasonable,0.001,0.001,25,2,0.002,1,1000,4,4000,1000,TRUE,0.1,TRUE,10,timemachine,0.801,-0.03181440209637789,0.006884056444299511,0,10000
10,250,0,300,600,900,1200,1500,1800,2100,2400,2700,2,0,1,0.25,0.25,0.25,0.25,0.25,0.25,0.25,0.25,0.25,0.25,-0.11249999999999999,random,random,random,random,random,random,random,random,random,-0.11249999999999999,linear,NA,-0.11249999999999999,0.5,0.025,0.001,0.001,1.0991208017965741,1.0991208017965742e-4,reasonable,0.001,0.001,25,2,0.002,1,1000,4,4000,1000,TRUE,0.1,TRUE,10,fixmodel,0.8337,-0.0014935758850592405,0.0075072229174532185,0,10000
10,250,0,300,600,900,1200,1500,1800,2100,2400,2700,2,0,1,0.25,0.25,0.25,0.25,0.25,0.25,0.25,0.25,0.25,0.25,-0.11249999999999999,random,random,random,random,random,random,random,random,random,-0.11249999999999999,linear,NA,-0.11249999999999999,0.5,0.025,0.001,0.001,1.0991208017965741,1.0991208017965742e-4,reasonable,0.001,0.001,25,2,0.002,1,1000,4,4000,1000,TRUE,0.1,TRUE,10,MAPpriorNew,0.81,-0.024354145466214457,0.006723804758313116,0,10000
10,250,0,300,600,900,1200,1500,1800,2100,2400,2700,2,0,1,0.25,0.25,0.25,0.25,0.25,0.25,0.25,0.25,0.25,0.25,-0.11249999999999999,random,random,random,random,random,random,random,random,random,-0.11249999999999999,linear,NA,-0.11249999999999999,0.5,0.025,0.001,0.001,1.0991208017965741,1.0991208017965742e-4,reasonable,0.001,0.001,25,2,0.002,1,1000,4,4000,1000,TRUE,0.1,TRUE,10,poolmodel,0.8107,-0.049998305205567396,0.0075259921857705235,0,10000
10,250,0,300,600,900,1200,1500,1800,2100,2400,2700,2,0,1,0.25,0.25,0.25,0.25,0.25,0.25,0.25,0.25,0.25,0.25,-0.11249999999999999,random,random,random,random,random,random,random,random,random,-0.11249999999999999,linear,NA,-0.11249999999999999,0.5,0.025,0.001,0.001,1.0991208017965741,1.0991208017965742e-4,reasonable,0.001,0.001,25,2,0.002,1,1000,4,4000,1000,TRUE,0.1,TRUE,10,sepmodel,0.7907,-0.001890339604378582,0.008047123423148311,0,10000
10,250,0,300,600,900,1200,1500,1800,2100,2400,2700,2,0,1,0.25,0.25,0.25,0.25,0.25,0.25,0.25,0.25,0.25,0.25,-0.11249999999999999,random,random,random,random,random,random,random,random,random,-0.11249999999999999,linear,NA,-0.11249999999999999,0.5,0.025,0.001,0.001,1.0991208017965741,1.0991208017965742e-4,reasonable,0.001,0.001,25,2,0.002,1,1000,4,4000,1000,TRUE,0.1,TRUE,10,timemachine,0.825,-0.024563468142923987,0.0065517630504252486,0,10000
10,250,0,300,600,900,1200,1500,1800,2100,2400,2700,2,0,1,0.25,0.25,0.25,0.25,0.25,0.25,0.25,0.25,0.25,0.25,-0.075,random,random,random,random,random,random,random,random,random,-0.075,linear,NA,-0.075,0.5,0.025,0.001,0.001,1.0991208017965741,1.0991208017965742e-4,reasonable,0.001,0.001,25,2,0.002,1,1000,4,4000,1000,TRUE,0.1,TRUE,10,fixmodel,0.8357,-4.4987696941843505e-4,0.00764154711960187,0,10000
10,250,0,300,600,900,1200,1500,1800,2100,2400,2700,2,0,1,0.25,0.25,0.25,0.25,0.25,0.25,0.25,0.25,0.25,0.25,-0.075,random,random,random,random,random,random,random,random,random,-0.075,linear,NA,-0.075,0.5,0.025,0.001,0.001,1.0991208017965741,1.0991208017965742e-4,reasonable,0.001,0.001,25,2,0.002,1,1000,4,4000,1000,TRUE,0.1,TRUE,10,MAPpriorNew,0.8411,-0.01645295070127682,0.0063341958117025515,0,10000
10,250,0,300,600,900,1200,1500,1800,2100,2400,2700,2,0,1,0.25,0.25,0.25,0.25,0.25,0.25,0.25,0.25,0.25,0.25,-0.075,random,random,random,random,random,random,random,random,random,-0.075,linear,NA,-0.075,0.5,0.025,0.001,0.001,1.0991208017965741,1.0991208017965742e-4,reasonable,0.001,0.001,25,2,0.002,1,1000,4,4000,1000,TRUE,0.1,TRUE,10,poolmodel,0.8635,-0.03310901890849267,0.00624244672380688,0,10000
10,250,0,300,600,900,1200,1500,1800,2100,2400,2700,2,0,1,0.25,0.25,0.25,0.25,0.25,0.25,0.25,0.25,0.25,0.25,-0.075,random,random,random,random,random,random,random,random,random,-0.075,linear,NA,-0.075,0.5,0.025,0.001,0.001,1.0991208017965741,1.0991208017965742e-4,reasonable,0.001,0.001,25,2,0.002,1,1000,4,4000,1000,TRUE,0.1,TRUE,10,sepmodel,0.7917,-0.00046777197963518994,0.008164050088498607,0,10000
10,250,0,300,600,900,1200,1500,1800,2100,2400,2700,2,0,1,0.25,0.25,0.25,0.25,0.25,0.25,0.25,0.25,0.25,0.25,-0.075,random,random,random,random,random,random,random,random,random,-0.075,linear,NA,-0.075,0.5,0.025,0.001,0.001,1.0991208017965741,1.0991208017965742e-4,reasonable,0.001,0.001,25,2,0.002,1,1000,4,4000,1000,TRUE,0.1,TRUE,10,timemachine,0.8509,-0.015883395001782933,0.006323650379749073,0,10000
10,250,0,300,600,900,1200,1500,1800,2100,2400,2700,2,0,1,0.25,0.25,0.25,0.25,0.25,0.25,0.25,0.25,0.25,0.25,-0.037500000000000006,random,random,random,random,random,random,random,random,random,-0.037500000000000006,linear,NA,-0.037500000000000006,0.5,0.025,0.001,0.001,1.0991208017965741,1.0991208017965742e-4,reasonable,0.001,0.001,25,2,0.002,1,1000,4,4000,1000,TRUE,0.1,TRUE,10,fixmodel,0.8389,1.2026766442518943e-4,0.007433267932664062,0,10000
10,250,0,300,600,900,1200,1500,1800,2100,2400,2700,2,0,1,0.25,0.25,0.25,0.25,0.25,0.25,0.25,0.25,0.25,0.25,-0.037500000000000006,random,random,random,random,random,random,random,random,random,-0.037500000000000006,linear,NA,-0.037500000000000006,0.5,0.025,0.001,0.001,1.0991208017965741,1.0991208017965742e-4,reasonable,0.001,0.001,25,2,0.002,1,1000,4,4000,1000,TRUE,0.1,TRUE,10,MAPpriorNew,0.8691,-0.008442012147830049,0.005816135357390794,0,10000
10,250,0,300,600,900,1200,1500,1800,2100,2400,2700,2,0,1,0.25,0.25,0.25,0.25,0.25,0.25,0.25,0.25,0.25,0.25,-0.037500000000000006,random,random,random,random,random,random,random,random,random,-0.037500000000000006,linear,NA,-0.037500000000000006,0.5,0.025,0.001,0.001,1.0991208017965741,1.0991208017965742e-4,reasonable,0.001,0.001,25,2,0.002,1,1000,4,4000,1000,TRUE,0.1,TRUE,10,poolmodel,0.9124,-0.016192910404716813,0.005182863751069247,0,10000
10,250,0,300,600,900,1200,1500,1800,2100,2400,2700,2,0,1,0.25,0.25,0.25,0.25,0.25,0.25,0.25,0.25,0.25,0.25,-0.037500000000000006,random,random,random,random,random,random,random,random,random,-0.037500000000000006,linear,NA,-0.037500000000000006,0.5,0.025,0.001,0.001,1.0991208017965741,1.0991208017965742e-4,reasonable,0.001,0.001,25,2,0.002,1,1000,4,4000,1000,TRUE,0.1,TRUE,10,sepmodel,0.7958,-3.628720307151812e-4,0.00796504684374503,0,10000
10,250,0,300,600,900,1200,1500,1800,2100,2400,2700,2,0,1,0.25,0.25,0.25,0.25,0.25,0.25,0.25,0.25,0.25,0.25,-0.037500000000000006,random,random,random,random,random,random,random,random,random,-0.037500000000000006,linear,NA,-0.037500000000000006,0.5,0.025,0.001,0.001,1.0991208017965741,1.0991208017965742e-4,reasonable,0.001,0.001,25,2,0.002,1,1000,4,4000,1000,TRUE,0.1,TRUE,10,timemachine,0.8753,-0.007847722598118646,0.00593977252383536,0,10000
10,250,0,300,600,900,1200,1500,1800,2100,2400,2700,2,0,1,0.25,0.25,0.25,0.25,0.25,0.25,0.25,0.25,0.25,0.25,0,random,random,random,random,random,random,random,random,random,0,linear,NA,0,0.5,0.025,0.001,0.001,1.0991208017965741,1.0991208017965742e-4,reasonable,0.001,0.001,25,2,0.002,1,1000,4,4000,1000,TRUE,0.1,TRUE,10,fixmodel,0.8393,7.018982494301284e-4,0.007412339077067602,0,10000
10,250,0,300,600,900,1200,1500,1800,2100,2400,2700,2,0,1,0.25,0.25,0.25,0.25,0.25,0.25,0.25,0.25,0.25,0.25,0,random,random,random,random,random,random,random,random,random,0,linear,NA,0,0.5,0.025,0.001,0.001,1.0991208017965741,1.0991208017965742e-4,reasonable,0.001,0.001,25,2,0.002,1,1000,4,4000,1000,TRUE,0.1,TRUE,10,MAPpriorNew,0.8898,0.0012278468744578944,0.0056608784928537095,0,10000
10,250,0,300,600,900,1200,1500,1800,2100,2400,2700,2,0,1,0.25,0.25,0.25,0.25,0.25,0.25,0.25,0.25,0.25,0.25,0,random,random,random,random,random,random,random,random,random,0,linear,NA,0,0.5,0.025,0.001,0.001,1.0991208017965741,1.0991208017965742e-4,reasonable,0.001,0.001,25,2,0.002,1,1000,4,4000,1000,TRUE,0.1,TRUE,10,poolmodel,0.9443,0.001329693345874791,0.004932109093988738,0,10000
10,250,0,300,600,900,1200,1500,1800,2100,2400,2700,2,0,1,0.25,0.25,0.25,0.25,0.25,0.25,0.25,0.25,0.25,0.25,0,random,random,random,random,random,random,random,random,random,0,linear,NA,0,0.5,0.025,0.001,0.001,1.0991208017965741,1.0991208017965742e-4,reasonable,0.001,0.001,25,2,0.002,1,1000,4,4000,1000,TRUE,0.1,TRUE,10,sepmodel,0.7971,0.0011052532245754067,0.007915981848808977,0,10000
10,250,0,300,600,900,1200,1500,1800,2100,2400,2700,2,0,1,0.25,0.25,0.25,0.25,0.25,0.25,0.25,0.25,0.25,0.25,0,random,random,random,random,random,random,random,random,random,0,linear,NA,0,0.5,0.025,0.001,0.001,1.0991208017965741,1.0991208017965742e-4,reasonable,0.001,0.001,25,2,0.002,1,1000,4,4000,1000,TRUE,0.1,TRUE,10,timemachine,0.8988,4.4758682824904523e-4,0.005760127874084348,0,10000
10,250,0,300,600,900,1200,1500,1800,2100,2400,2700,2,0,1,0.25,0.25,0.25,0.25,0.25,0.25,0.25,0.25,0.25,0.25,0.037500000000000006,random,random,random,random,random,random,random,random,random,0.037500000000000006,linear,NA,0.037500000000000006,0.5,0.025,0.001,0.001,1.0991208017965741,1.0991208017965742e-4,reasonable,0.001,0.001,25,2,0.002,1,1000,4,4000,1000,TRUE,0.1,TRUE,10,fixmodel,0.8397,6.532991750684733e-4,0.007453309865432205,0,10000
10,250,0,300,600,900,1200,1500,1800,2100,2400,2700,2,0,1,0.25,0.25,0.25,0.25,0.25,0.25,0.25,0.25,0.25,0.25,0.037500000000000006,random,random,random,random,random,random,random,random,random,0.037500000000000006,linear,NA,0.037500000000000006,0.5,0.025,0.001,0.001,1.0991208017965741,1.0991208017965742e-4,reasonable,0.001,0.001,25,2,0.002,1,1000,4,4000,1000,TRUE,0.1,TRUE,10,MAPpriorNew,0.9024,0.008513606125900129,0.005761606541991905,0,10000
10,250,0,300,600,900,1200,1500,1800,2100,2400,2700,2,0,1,0.25,0.25,0.25,0.25,0.25,0.25,0.25,0.25,0.25,0.25,0.037500000000000006,random,random,random,random,random,random,random,random,random,0.037500000000000006,linear,NA,0.037500000000000006,0.5,0.025,0.001,0.001,1.0991208017965741,1.0991208017965742e-4,reasonable,0.001,0.001,25,2,0.002,1,1000,4,4000,1000,TRUE,0.1,TRUE,10,poolmodel,0.9664,0.01634059255527095,0.005162858624734102,0,10000
10,250,0,300,600,900,1200,1500,1800,2100,2400,2700,2,0,1,0.25,0.25,0.25,0.25,0.25,0.25,0.25,0.25,0.25,0.25,0.037500000000000006,random,random,random,random,random,random,random,random,random,0.037500000000000006,linear,NA,0.037500000000000006,0.5,0.025,0.001,0.001,1.0991208017965741,1.0991208017965742e-4,reasonable,0.001,0.001,25,2,0.002,1,1000,4,4000,1000,TRUE,0.1,TRUE,10,sepmodel,0.8008,3.1708768949211555e-4,0.007893898676239268,0,10000
10,250,0,300,600,900,1200,1500,1800,2100,2400,2700,2,0,1,0.25,0.25,0.25,0.25,0.25,0.25,0.25,0.25,0.25,0.25,0.037500000000000006,random,random,random,random,random,random,random,random,random,0.037500000000000006,linear,NA,0.037500000000000006,0.5,0.025,0.001,0.001,1.0991208017965741,1.0991208017965742e-4,reasonable,0.001,0.001,25,2,0.002,1,1000,4,4000,1000,TRUE,0.1,TRUE,10,timemachine,0.9138,0.007908117220932258,0.005900548606080116,0,10000
10,250,0,300,600,900,1200,1500,1800,2100,2400,2700,2,0,1,0.25,0.25,0.25,0.25,0.25,0.25,0.25,0.25,0.25,0.25,0.07499999999999998,random,random,random,random,random,random,random,random,random,0.07499999999999998,linear,NA,0.07499999999999998,0.5,0.025,0.001,0.001,1.0991208017965741,1.0991208017965742e-4,reasonable,0.001,0.001,25,2,0.002,1,1000,4,4000,1000,TRUE,0.1,TRUE,10,fixmodel,0.8352,-0.001297608134387209,0.007269281674975121,0,10000
10,250,0,300,600,900,1200,1500,1800,2100,2400,2700,2,0,1,0.25,0.25,0.25,0.25,0.25,0.25,0.25,0.25,0.25,0.25,0.07499999999999998,random,random,random,random,random,random,random,random,random,0.07499999999999998,linear,NA,0.07499999999999998,0.5,0.025,0.001,0.001,1.0991208017965741,1.0991208017965742e-4,reasonable,0.001,0.001,25,2,0.002,1,1000,4,4000,1000,TRUE,0.1,TRUE,10,MAPpriorNew,0.9032,0.014899757555135366,0.005995297569003596,0,10000
10,250,0,300,600,900,1200,1500,1800,2100,2400,2700,2,0,1,0.25,0.25,0.25,0.25,0.25,0.25,0.25,0.25,0.25,0.25,0.07499999999999998,random,random,random,random,random,random,random,random,random,0.07499999999999998,linear,NA,0.07499999999999998,0.5,0.025,0.001,0.001,1.0991208017965741,1.0991208017965742e-4,reasonable,0.001,0.001,25,2,0.002,1,1000,4,4000,1000,TRUE,0.1,TRUE,10,poolmodel,0.9797,0.03212499297900619,0.005906083678632697,0,10000
10,250,0,300,600,900,1200,1500,1800,2100,2400,2700,2,0,1,0.25,0.25,0.25,0.25,0.25,0.25,0.25,0.25,0.25,0.25,0.07499999999999998,random,random,random,random,random,random,random,random,random,0.07499999999999998,linear,NA,0.07499999999999998,0.5,0.025,0.001,0.001,1.0991208017965741,1.0991208017965742e-4,reasonable,0.001,0.001,25,2,0.002,1,1000,4,4000,1000,TRUE,0.1,TRUE,10,sepmodel,0.7955,-0.001200346600328315,0.007873710949179892,0,10000
10,250,0,300,600,900,1200,1500,1800,2100,2400,2700,2,0,1,0.25,0.25,0.25,0.25,0.25,0.25,0.25,0.25,0.25,0.25,0.07499999999999998,random,random,random,random,random,random,random,random,random,0.07499999999999998,linear,NA,0.07499999999999998,0.5,0.025,0.001,0.001,1.0991208017965741,1.0991208017965742e-4,reasonable,0.001,0.001,25,2,0.002,1,1000,4,4000,1000,TRUE,0.1,TRUE,10,timemachine,0.9228,0.015554928292744552,0.006002699214188813,0,10000
10,250,0,300,600,900,1200,1500,1800,2100,2400,2700,2,0,1,0.25,0.25,0.25,0.25,0.25,0.25,0.25,0.25,0.25,0.25,0.11250000000000002,random,random,random,random,random,random,random,random,random,0.11250000000000002,linear,NA,0.11250000000000002,0.5,0.025,0.001,0.001,1.0991208017965741,1.0991208017965742e-4,reasonable,0.001,0.001,25,2,0.002,1,1000,4,4000,1000,TRUE,0.1,TRUE,10,fixmodel,0.8321,-0.0010178532777127666,0.007631800457523595,0,10000
10,250,0,300,600,900,1200,1500,1800,2100,2400,2700,2,0,1,0.25,0.25,0.25,0.25,0.25,0.25,0.25,0.25,0.25,0.25,0.11250000000000002,random,random,random,random,random,random,random,random,random,0.11250000000000002,linear,NA,0.11250000000000002,0.5,0.025,0.001,0.001,1.0991208017965741,1.0991208017965742e-4,reasonable,0.001,0.001,25,2,0.002,1,1000,4,4000,1000,TRUE,0.1,TRUE,10,MAPpriorNew,0.9057,0.022025244117393535,0.00676603412926626,0,10000
10,250,0,300,600,900,1200,1500,1800,2100,2400,2700,2,0,1,0.25,0.25,0.25,0.25,0.25,0.25,0.25,0.25,0.25,0.25,0.11250000000000002,random,random,random,random,random,random,random,random,random,0.11250000000000002,linear,NA,0.11250000000000002,0.5,0.025,0.001,0.001,1.0991208017965741,1.0991208017965742e-4,reasonable,0.001,0.001,25,2,0.002,1,1000,4,4000,1000,TRUE,0.1,TRUE,10,poolmodel,0.9869,0.048365237735245405,0.007392586474812679,0,10000
10,250,0,300,600,900,1200,1500,1800,2100,2400,2700,2,0,1,0.25,0.25,0.25,0.25,0.25,0.25,0.25,0.25,0.25,0.25,0.11250000000000002,random,random,random,random,random,random,random,random,random,0.11250000000000002,linear,NA,0.11250000000000002,0.5,0.025,0.001,0.001,1.0991208017965741,1.0991208017965742e-4,reasonable,0.001,0.001,25,2,0.002,1,1000,4,4000,1000,TRUE,0.1,TRUE,10,sepmodel,0.7896,-9.731765660442946e-4,0.008212237200562645,0,10000
10,250,0,300,600,900,1200,1500,1800,2100,2400,2700,2,0,1,0.25,0.25,0.25,0.25,0.25,0.25,0.25,0.25,0.25,0.25,0.11250000000000002,random,random,random,random,random,random,random,random,random,0.11250000000000002,linear,NA,0.11250000000000002,0.5,0.025,0.001,0.001,1.0991208017965741,1.0991208017965742e-4,reasonable,0.001,0.001,25,2,0.002,1,1000,4,4000,1000,TRUE,0.1,TRUE,10,timemachine,0.9363,0.02358437147167145,0.006562859809909502,0,10000
10,250,0,300,600,900,1200,1500,1800,2100,2400,2700,2,0,1,0.25,0.25,0.25,0.25,0.25,0.25,0.25,0.25,0.25,0.25,0.15,random,random,random,random,random,random,random,random,random,0.15,linear,NA,0.15,0.5,0.025,0.001,0.001,1.0991208017965741,1.0991208017965742e-4,reasonable,0.001,0.001,25,2,0.002,1,1000,4,4000,1000,TRUE,0.1,TRUE,10,fixmodel,0.8429,9.564877314714356e-4,0.007598956412906459,0,10000
10,250,0,300,600,900,1200,1500,1800,2100,2400,2700,2,0,1,0.25,0.25,0.25,0.25,0.25,0.25,0.25,0.25,0.25,0.25,0.15,random,random,random,random,random,random,random,random,random,0.15,linear,NA,0.15,0.5,0.025,0.001,0.001,1.0991208017965741,1.0991208017965742e-4,reasonable,0.001,0.001,25,2,0.002,1,1000,4,4000,1000,TRUE,0.1,TRUE,10,MAPpriorNew,0.9095,0.02968155797730657,0.007273765920160124,0,10000
10,250,0,300,600,900,1200,1500,1800,2100,2400,2700,2,0,1,0.25,0.25,0.25,0.25,0.25,0.25,0.25,0.25,0.25,0.25,0.15,random,random,random,random,random,random,random,random,random,0.15,linear,NA,0.15,0.5,0.025,0.001,0.001,1.0991208017965741,1.0991208017965742e-4,reasonable,0.001,0.001,25,2,0.002,1,1000,4,4000,1000,TRUE,0.1,TRUE,10,poolmodel,0.9939,0.06615867339324695,0.00940789351354487,0,10000
10,250,0,300,600,900,1200,1500,1800,2100,2400,2700,2,0,1,0.25,0.25,0.25,0.25,0.25,0.25,0.25,0.25,0.25,0.25,0.15,random,random,random,random,random,random,random,random,random,0.15,linear,NA,0.15,0.5,0.025,0.001,0.001,1.0991208017965741,1.0991208017965742e-4,reasonable,0.001,0.001,25,2,0.002,1,1000,4,4000,1000,TRUE,0.1,TRUE,10,sepmodel,0.7987,3.738865950908171e-4,0.008034937605177036,0,10000
10,250,0,300,600,900,1200,1500,1800,2100,2400,2700,2,0,1,0.25,0.25,0.25,0.25,0.25,0.25,0.25,0.25,0.25,0.25,0.15,random,random,random,random,random,random,random,random,random,0.15,linear,NA,0.15,0.5,0.025,0.001,0.001,1.0991208017965741,1.0991208017965742e-4,reasonable,0.001,0.001,25,2,0.002,1,1000,4,4000,1000,TRUE,0.1,TRUE,10,timemachine,0.9438,0.0330111062338117,0.007058698990831585,0,10000
